libs/ui/packages/crypto-icons/src/svg/AGRS.svg

<svg width="24" height="24" viewBox="0 0 24 24" fill="none">
<path d="M14.8159 13.0008C16.5004 10.3616 17.8121 6.00034 17.8121 6.00034L15.0034 6.63709L13.9751 10.2746C13.8784 7.54759 12.0086 6.54934 12.0086 6.54934C10.5109 5.81959 9.17587 6.14059 8.21362 6.64234C7.02262 7.26184 6.15637 8.34184 5.74162 9.58534C5.15212 11.3546 5.22412 13.3398 5.30212 14.2383C5.33362 14.6598 5.42662 15.0746 5.57962 15.4706C6.61312 18.1503 9.47587 17.9981 9.47587 17.9981C12.0986 17.9051 13.6924 14.8166 13.6924 14.8166L14.4439 17.0876C15.1174 18.2268 16.6091 17.8001 16.9159 17.7363C16.9699 17.7243 17.0179 17.7183 17.0726 17.7063L18.7496 17.4506V16.7208C15.0986 16.8198 14.8159 13.0016 14.8159 13.0016V13.0008ZM11.2616 15.7458C11.0358 15.9773 10.7511 16.1428 10.4381 16.2243C9.75787 16.3938 9.23512 16.1081 8.87437 15.7578C8.47134 15.3508 8.19538 14.8354 8.08012 14.2743C7.41862 10.5318 8.33287 8.89159 8.94037 8.13784C9.10584 7.92654 9.31917 7.7576 9.56275 7.64493C9.80634 7.53227 10.0732 7.47911 10.3414 7.48984C12.6994 7.61284 13.2289 12.5463 13.2289 12.5463C12.5614 14.2976 11.7011 15.3138 11.2616 15.7458Z" fill="#F49E00"/>
</svg>

<svg width="24" height="24" viewBox="0 0 24 24" fill="none"><path fill="#f49e00" d="M14.816 13c1.684-2.638 2.996-7 2.996-7l-2.809.637-1.028 3.638c-.097-2.727-1.966-3.726-1.966-3.726-1.498-.73-2.833-.408-3.795.093-1.191.62-2.058 1.7-2.472 2.943-.59 1.77-.518 3.755-.44 4.653.032.422.125.837.278 1.233 1.033 2.68 3.896 2.527 3.896 2.527 2.623-.093 4.216-3.181 4.216-3.181l.752 2.27c.673 1.14 2.165.713 2.472.65.054-.013.102-.019.157-.03l1.677-.256v-.73c-3.651.099-3.934-3.72-3.934-3.72m-3.554 2.746c-.226.231-.51.397-.824.478-.68.17-1.203-.116-1.564-.466a2.95 2.95 0 0 1-.794-1.484c-.661-3.742.253-5.382.86-6.136a1.7 1.7 0 0 1 1.401-.648c2.358.123 2.888 5.056 2.888 5.056-.668 1.752-1.528 2.768-1.967 3.2"/></svg>
